X:1
T:Title
%%score { ( 1 4 ) | ( 2 3 ) }
L:1/8
Q:1/4=104
M:4/4
K:A
V:1 treble nm="Grand Piano"
V:4 treble 
V:2 bass 
V:3 bass 
V:1
 [CE]3 [CA] [Ec][EB][EA][EG] | F2 A2 E4 | B3 ^A Bcdc | c4 B2 z2 | [Ec]3 [Fd] [Ec][EB][EA][EG] | %5
w: L.~O.~Emerson * * * * *|||||
 B2 A2 F4 | E3 A AGAB |[M:7/8] c2 B2 [A,CA]3 |[M:1/4] E>A |[M:4/4] c6 z2 | [Gd]2 [Gd]4 d>c | %11
w: ||||||
 B6 z2 | [Ac]6 z2 | e6 z2 | [DFA]2 [Fd]4 [DF]>[FA] | E2 c2 B3 c | [CA]6 z2 |] %17
w: ||||||
V:2
 [A,,A,]3 [A,,E,] [A,,A,][B,,G,][C,A,][C,A,] | [D,A,D]2 [F,A,D]2 [A,C]4 | %2
 [E,G,E]3 [E,=G,E] [E,^G,E][E,A,E][E,B,E][E,A,E] | E6 z2 | %4
 [A,,A,]3 [A,,A,] [A,,A,][B,,G,][C,A,][C,A,] | [D,F,D]2 [D,F,D]2 [D,A,D]4 | %6
 [E,A,C]3 [E,CE] [F,B,^D][F,B,D][F,B,D][F,B,D] |[M:7/8] [E,A,E]2 [E,G,D]2 A,,3 |[M:1/4] C>C | %9
[M:4/4] E6 z2 | [E,B,]2 [E,B,]4[K:treble] B>A | G6[K:bass] z2 | A,>A, E,>C, A,,2[K:treble] A>B | %13
 c6[K:bass] z2 | D,2 [D,A,]4 [D,A,]>[D,A,] | [E,A,C]2 [E,A,E]2 [E,G,D]3 [E,G,E] | [A,,A,]6 z2 |] %17
V:3
 x8 | x8 | x8 | [E,A,]4 G,2 z2 | x8 | x8 | x8 |[M:7/8] x7 |[M:1/4] x2 | %9
[M:4/4] z2 A,,>A,, A,,>[A,E] [G,DE]>[A,CE] | x6[K:treble] x2 | z2[K:bass] E,>E, E,>E, E,>E, | %12
 x6[K:treble] x2 | z2 A,>A,[K:bass] A,>A,, B,,>C, | x8 | x8 | x8 |] %17
V:4
 x8 | x8 | x8 | x8 | x8 | x8 | x8 |[M:7/8] x7 |[M:1/4] x2 |[M:4/4] z2 A,>A, A,>c B>c | x8 | %11
 z2 E>E E>[DGB] [CA]>[EGB] | E>E E>E E2 c>d | z2 E>E E>[EAc] [EGB]>[E=GA] | x8 | x8 | x8 |] %17

